X: 10221
M: C
L: 1/8
K: G
V: 1 staves=3
de/f/ |\
g2g>g d2d>d | B2B>B G2z2 |\
d2d>e defg | f2e2 d2A>B |\
c3B cBcA | B2d2 gdBG |\
c3B cBcA | BGBd g2z2 |
.B.d.d.d .d.B.d.d | e2e>e e2de/f/ |\
g>g d>B G>G B>G | d2d>d d2z2 ::\
a2a>g f2f>e |
d2d>d d2z2 |\
d2d>c B2B>A | G2G>G G2AB |\
c2e>e e2dc | B2d>d d2cB |\
c3B cBcA | B2d2 cBAG |
c3B cBcA | BGBd g2z2 |\
.B.d.d.d .d.B.d.d | e2e>e e2z2 |\
d3e d2c2 | Bcde defg |\
d>c B>e d>c B>A | G2G>G G2z2 :|
V: 2
de/f/ |\
g2g>g d2d>d | B2B>B G2z2 |\
f2f>e e2A>G |
E2c>c c2BA | G2B>B B2AG |\
V: 3 clef=bass middle=d
de/f/ |\
g2g>g d2d>d | B2B>B G2z2 |\
g2z2 g2g2 | a2A2 d2z2 |\
d3d d2d2 | .g2.g2 .g2z2 |\
d3d d2d2 | e2g>g g2z2 |
g2g>g g2z2 | g2g>g g2z2 |\
g2g2 g2g2 | c2c>c c2z2 |\
g2d2 B2G2 | d2d>d d2z2 ::\
a2a2 A2A2 |
d2d>d d2z2 |\
d2d2 d2d2 | G2G>G G2z2 |\
c2c>c c2z2 | g2g>g g2z2 |\
d2g2 f2g2 | d2d>d d2z2 |\
d3d d2d2 | .g2.g2 .g2.g2 |
d3d d2d2 | g2g>g g2z2 |\
g2g>g g2z2 | g2g>g g2z2 |
.g2.a2 .g2.g2 | c2c>c c2z2 |\
g3g g2d2 | g2z2 g2z2 |\
g2z2 d2d2 | G2G>G G2z2 :|


